usr/share/icons/biglinux-icons-material/scalable/devices/network-workgroup.svg

<?xml version="1.0" encoding="UTF-8" standalone="no"?>
<svg
   width="24"
   height="24"
   viewBox="0 0 6.349875 6.349875"
   version="1.1"
   id="svg5"
   sodipodi:docname="network-workgroup.svg"
   inkscape:version="1.3 (0e150ed6c4, 2023-07-21)"
   xmlns:inkscape="http://www.inkscape.org/namespaces/inkscape"
   xmlns:sodipodi="http://sodipodi.sourceforge.net/DTD/sodipodi-0.dtd"
   xmlns="http://www.w3.org/2000/svg"
   xmlns:svg="http://www.w3.org/2000/svg">
  <defs
     id="defs5">
    <radialGradient
       id="paint0_radial_1_33"
       cx="0"
       cy="0"
       r="1"
       gradientUnits="userSpaceOnUse"
       gradientTransform="matrix(0,2.9103593,-2.9103593,0,3.1749374,0.26457812)">
      <stop
         stop-color="#6EBBF7"
         id="stop5758" />
      <stop
         offset="1"
         stop-color="#2196F3"
         id="stop5760" />
    </radialGradient>
  </defs>
  <sodipodi:namedview
     id="namedview5"
     pagecolor="#ffffff"
     bordercolor="#000000"
     borderopacity="0.25"
     inkscape:showpageshadow="2"
     inkscape:pageopacity="0.0"
     inkscape:pagecheckerboard="0"
     inkscape:deskcolor="#d1d1d1"
     inkscape:zoom="6.3359375"
     inkscape:cx="43.324291"
     inkscape:cy="26.278668"
     inkscape:window-width="2560"
     inkscape:window-height="998"
     inkscape:window-x="0"
     inkscape:window-y="0"
     inkscape:window-maximized="1"
     inkscape:current-layer="svg5" />
  <path
     fill-rule="evenodd"
     clip-rule="evenodd"
     d="m 2.5389022,0.29463155 c 0.031707,3.3601e-4 0.062015,-0.003701 0.090922,-0.0121177 0.3798839,-0.0248846 0.7597123,-0.0238753 1.1395406,0.003029 0.3444016,0.0268339 0.6777965,0.10155611 1.0001585,0.2241669 C 5.3054528,0.73035203 5.6721845,1.1130537 5.8696656,1.6578095 5.982614,1.9857884 6.0492877,2.3230515 6.0697131,2.6695932 6.0979436,3.1047449 6.0878367,3.538944 6.0393925,3.9721907 6.0031453,4.2766936 5.9243274,4.5695287 5.8029919,4.8506694 5.5779418,5.3381546 5.2132473,5.6744069 4.7089085,5.8594264 4.3002146,5.9975097 3.8799588,6.0702158 3.4481143,6.0775182 2.9623754,6.1027854 2.4815126,6.0664323 2.0054942,5.9684855 1.1293226,5.7733062 0.58884242,5.239123 0.38405631,4.3659888 0.29715033,3.9729315 0.25775174,3.5750854 0.26585603,3.1724504 0.25615819,2.7443101 0.30161906,2.322226 0.40224076,1.9062086 0.61691945,1.0898184 1.1351724,0.58392656 1.9570023,0.38853826 2.1485013,0.34172116 2.3424688,0.31041893 2.5389022,0.29463155 Z"
     fill="url(#paint0_radial_1_33)"
     id="path5741"
     style="fill:url(#paint0_radial_1_33);stroke-width:0.264578" />
  <g
     id="g11"
     transform="matrix(0.26457812,0,0,0.26457812,-9.7266177,1.018702)">
    <rect
       x="43.994705"
       y="2.2860587"
       width="9.5360775"
       height="0.79467309"
       rx="0.39733654"
       ry="0.39733654"
       fill="#ffffff"
       opacity="0.35"
       style="stroke-width:0.397337;paint-order:stroke fill markers"
       id="rect9" />
    <rect
       x="45.186714"
       y="3.8754046"
       width="7.1520576"
       height="0.79467309"
       rx="0.39733654"
       ry="0.39733654"
       fill="#ffffff"
       opacity="0.35"
       style="stroke-width:0.397337;paint-order:stroke fill markers"
       id="rect10" />
    <rect
       x="46.378723"
       y="5.4647503"
       width="4.7680387"
       height="0.79467309"
       rx="0.39733654"
       ry="0.39733654"
       fill="#ffffff"
       opacity="0.35"
       style="stroke-width:0.397337;paint-order:stroke fill markers"
       id="rect11" />
  </g>
  <path
     id="circle11857"
     style="fill:#bfd6ef;fill-opacity:1;fill-rule:evenodd;stroke-width:0.12494;paint-order:fill markers stroke"
     d="m 4.8852196,3.0191311 a 2.248914,2.248914 0 0 0 -2.248914,2.2489143 2.248914,2.248914 0 0 0 0.1498586,0.8066532 c 0.2207569,0.01434 0.4427755,0.015713 0.6655794,0.00413 C 3.8835681,6.0715077 4.3034195,5.9988549 4.7121067,5.8607583 5.2164476,5.6757327 5.5815556,5.3395384 5.8065925,4.8520542 5.9279297,4.5708897 6.0064887,4.2780687 6.0427486,3.9735723 6.0653674,3.7713984 6.0792186,3.5689816 6.0851187,3.3663862 A 2.248914,2.248914 0 0 0 4.8852196,3.0191311 Z" />
  <path
     id="path8"
     style="fill:#ffffff;fill-opacity:1;fill-rule:evenodd;stroke-width:0.12494;paint-order:fill markers stroke"
     d="M 4.857489,3.5619864 A 1.6719234,1.6719234 0 0 0 3.1852726,5.2342028 1.6719234,1.6719234 0 0 0 3.4193622,6.0801293 c 0.010864,-5.033e-4 0.021688,-9.853e-4 0.032555,-0.00155 0.2599364,-0.00441 0.5154271,-0.032454 0.7668632,-0.084231 -0.025074,-0.020143 -0.058658,-0.038769 -0.1007671,-0.05736 -0.099526,-0.043181 -0.031524,-0.065535 -0.1421074,-0.098183 -0.1105838,-0.032648 -0.2345034,0.1634802 -0.2676786,0.098183 -0.032648,-0.065298 0.1043843,-0.065236 0.1043843,-0.1415906 0,-0.074249 -0.1575955,0.05603 -0.1860315,-0.038757 -5.266e-4,-0.00369 -0.00465,-0.0036 -0.00517,-0.00517 -0.00263,-0.014218 -0.00105,-0.022014 0,-0.033072 0.00685,-0.077935 0.097972,-0.1091592 0.1369398,-0.1855147 0.043181,-0.086887 0.021197,0.065752 0.075963,0.1421074 0.055292,0.076356 0.033176,-0.097904 0,-0.1958498 -0.032648,-0.098999 0.020784,-0.098855 0.097667,-0.2289221 0.076882,-0.1311207 0.07648,-0.207456 0.07648,-0.3054017 0,-0.097946 0.053764,-0.108756 0.1632944,-0.2067017 0.051079,-0.045287 0.090389,-0.084596 0.1204037,-0.1204037 0.00685,-0.00369 0.014331,-0.00358 0.021704,-0.00568 0.116371,-0.0474 0.1660566,-0.1170059 0.2671619,-0.3265886 C 4.6821286,4.074808 4.5412982,4.2706058 4.5102282,4.2627068 4.4786333,4.2548068 4.4342442,4.1997898 4.3247135,4.1376523 A 0.17535449,0.17535449 0 0 0 4.26477,4.1164653 L 4.4668209,3.7836756 c 0.06477,-0.017378 0.1341409,-0.029287 0.2010173,-0.03824 0.025276,0.1411258 0.011369,0.2723294 0.011369,0.2723294 0,0 -0.03824,0.045412 -0.03824,0.07648 0,0.031595 0.208706,-0.2570485 0.239774,-0.2728462 0.03159,-0.015798 0.1103002,0.082335 0.1255712,-0.065111 5.26e-4,-0.00895 -0.001,-0.00866 0,-0.015503 0.1627158,0.014745 0.3197696,0.05154 0.4635285,0.1142027 a 0.14007296,0.14007296 0 0 0 -0.027388,0.048575 c -0.044228,0.1321724 -0.1094334,0.069255 -0.032553,0.2346047 0.07688,0.1653493 0.1417043,0.2081474 0.1632943,0.1307388 0.02264,-0.076882 -0.054878,-0.1853074 0.033072,-0.1410738 0.08794,0.043706 0.1526356,-0.012183 0.086815,0.086815 -0.06582,0.098999 -0.064178,0.1523288 -0.1415907,0.1307388 -0.07741,-0.022118 -0.076078,0.1303158 -0.1529592,0.1529592 -0.07688,0.02159 -0.1033508,-0.033579 -0.1033508,0.021187 0,0.055818 0.044122,0.00403 0.033072,0.093016 -0.0037,0.026328 -0.00248,0.031821 -0.00568,0.043407 -0.07267,-0.020537 -0.1044148,-0.031914 -0.1581267,-0.010852 -0.05529,0.02159 -0.119887,0.1632943 -0.119887,0.1632943 0.06898,0.068983 0.1008315,0.1184108 0.1250545,0.1421074 -0.01527,0.00685 -0.033822,0.010657 -0.049092,0.021187 -0.1100569,0.077409 -0.1957461,0.091477 -0.2289221,0.2015341 -0.03265,0.1105838 -0.021704,0.00941 -0.021704,0.1421074 0,0.1316474 -0.033794,0.042178 0.032555,0.1632943 0.045121,0.083028 0.1350459,0.1360541 0.212386,0.182931 0.2567583,-0.1651948 0.4623789,-0.3856616 0.6164877,-0.6619621 -0.2748262,-0.067475 -0.4095681,-0.09098 -0.496084,-0.07648 0.0016,-0.00369 0.00358,-0.0036 0.00568,-0.00517 0.04739,-0.086888 0.1385343,-0.2074355 0.1085184,-0.2511425 0.041841,-0.023533 0.074517,-0.050264 0.098183,-0.043407 v -0.00103 l 5.167e-4,0.00103 c 0.01034,0.0038 0.018554,0.014365 0.027388,0.032555 0.03265,0.077409 0.087117,0.141384 0.043407,0.1524425 -0.04423,0.010533 -0.065628,0.02222 -0.065628,0.02222 0,0 0.1527624,0.099205 0.1632944,-0.010852 0.01106,-0.1105805 -0.042891,-0.175176 -0.042891,-0.175176 0,0 0.075546,0.076697 0.097666,0.1204037 0.02212,0.044233 0.021193,10e-6 0.075963,0.054776 0.05529,0.055292 0.043005,-0.2195161 0.1198869,-0.1421074 0.00214,0.00214 0.00411,0.00366 0.0062,0.00568 0.075406,-0.206413 0.128625,-0.4190799 0.1596771,-0.6376704 A 1.6719234,1.6719234 0 0 0 4.857489,3.5619864 Z m 0.4252887,0.7668631 c -0.0069,0.00158 -0.01382,0.00304 -0.02067,0.0062 0,0.037915 -0.014324,0.066375 -0.021704,0.081647 -0.0037,-0.00737 -0.016019,-0.017053 -0.016019,-0.017053 -0.01685,0.030542 -0.052876,0.058045 -0.016536,0.049092 0.03528,-0.00789 0.063507,0.014512 0.038757,-0.015503 -0.0053,-0.00632 -0.0025,-0.00462 -0.0062,-0.00672 0.0053,0.00422 0.014122,0.00672 0.033072,0.00672 h 0.049092 c -0.02633,0.019484 -0.055509,0.027717 -0.016019,0.037723 0.05213,0.013692 0.075963,0.016745 0.075963,0.00568 a 0.25276322,0.25276322 0 0 0 -0.016536,-0.049603 c 0.01053,-0.00369 0.019802,-0.00898 0.010852,-0.026355 -0.0158,-0.0337 -0.042263,-0.066046 -0.075963,-0.071312 a 0.05529196,0.05529196 0 0 0 -0.018086,-5.168e-4 z" />
</svg>

<svg xmlns="http://www.w3.org/2000/svg" width="24" height="24" viewBox="0 0 6.35 6.35"><defs><radialGradient id="a" cx="0" cy="0" r="1" gradientTransform="rotate(90 1.455 1.72) scale(2.91036)" gradientUnits="userSpaceOnUse"><stop stop-color="#6EBBF7"/><stop offset="1" stop-color="#2196F3"/></radialGradient></defs><path fill="url(#a)" fill-rule="evenodd" d="M2.539.295a.312.312 0 0 0 .09-.012c.38-.025.76-.024 1.14.003.345.026.678.101 1 .224.536.22.903.603 1.1 1.148.114.328.18.665.2 1.012.029.435.019.869-.03 1.302a3.143 3.143 0 0 1-.236.879 1.87 1.87 0 0 1-1.094 1.008c-.409.139-.829.211-1.26.219a5.668 5.668 0 0 1-1.444-.11C1.13 5.773.59 5.24.385 4.366a5.04 5.04 0 0 1-.12-1.194c-.009-.428.037-.85.137-1.266C.617 1.09 1.135.584 1.957.39c.192-.047.385-.079.582-.094Z" clip-rule="evenodd" style="fill:url(#a);stroke-width:.264578"/><g fill="#fff" transform="matrix(.26458 0 0 .26458 -9.727 1.019)"><rect width="9.536" height=".795" x="43.995" y="2.286" opacity=".35" rx=".397" ry=".397" style="stroke-width:.397337;paint-order:stroke fill markers"/><rect width="7.152" height=".795" x="45.187" y="3.875" opacity=".35" rx=".397" ry=".397" style="stroke-width:.397337;paint-order:stroke fill markers"/><rect width="4.768" height=".795" x="46.379" y="5.465" opacity=".35" rx=".397" ry=".397" style="stroke-width:.397337;paint-order:stroke fill markers"/></g><path d="M4.885 3.02a2.249 2.249 0 0 0-2.249 2.248 2.249 2.249 0 0 0 .15.807c.22.014.443.015.666.004.432-.007.851-.08 1.26-.218a1.87 1.87 0 0 0 1.095-1.009c.12-.281.2-.574.236-.878.022-.203.036-.405.042-.608a2.249 2.249 0 0 0-1.2-.347Z" style="fill:#bfd6ef;fill-opacity:1;fill-rule:evenodd;stroke-width:.12494;paint-order:fill markers stroke"/><path d="M4.857 3.562a1.672 1.672 0 0 0-1.672 1.672 1.672 1.672 0 0 0 .234.846l.033-.001c.26-.005.515-.033.767-.085a.456.456 0 0 0-.101-.057c-.1-.043-.032-.066-.142-.098-.11-.033-.235.163-.268.098-.032-.065.105-.065.105-.142 0-.074-.158.056-.186-.038 0-.004-.005-.004-.006-.006-.002-.014 0-.022 0-.033.007-.078.098-.109.137-.185.044-.087.022.066.076.142.056.076.033-.098 0-.196-.032-.099.021-.099.098-.229s.076-.207.076-.305.054-.109.164-.207a1.17 1.17 0 0 0 .12-.12c.007-.004.014-.004.022-.006.116-.047.166-.117.267-.327.101-.21-.04-.014-.07-.022-.032-.008-.077-.063-.186-.125a.175.175 0 0 0-.06-.022l.202-.332c.065-.018.134-.03.2-.039.026.142.012.273.012.273s-.038.045-.038.076c0 .032.209-.257.24-.273.031-.015.11.083.125-.065v-.015c.163.015.32.051.464.114a.14.14 0 0 0-.028.049c-.044.132-.109.069-.032.234.077.166.142.208.163.13.023-.076-.055-.184.033-.14.088.044.153-.012.087.087-.066.099-.064.152-.142.13-.077-.022-.076.13-.152.153-.077.022-.104-.033-.104.022s.044.004.033.093c-.003.026-.002.031-.005.043-.073-.02-.105-.032-.159-.01-.055.02-.12.162-.12.162.07.07.101.119.126.143-.016.006-.034.01-.05.02-.11.078-.195.092-.228.202-.033.11-.022.01-.022.142 0 .132-.034.043.032.164.046.083.135.136.213.183.257-.166.462-.386.616-.662-.275-.068-.41-.091-.496-.077.002-.004.004-.003.006-.005.047-.087.138-.207.108-.251.042-.024.075-.05.099-.044.01.004.019.015.028.033.032.077.087.141.043.152-.044.01-.066.023-.066.023s.153.099.164-.011c.01-.11-.043-.175-.043-.175s.075.076.097.12c.022.044.022 0 .076.055.056.055.043-.22.12-.142l.006.005c.076-.206.129-.419.16-.637a1.672 1.672 0 0 0-1.176-.484Zm.426.767c-.007.001-.014.003-.02.006 0 .038-.015.066-.023.082a.073.073 0 0 0-.016-.017c-.016.03-.052.058-.016.049.035-.008.063.014.039-.016-.006-.006-.003-.004-.007-.006.006.004.015.006.033.006h.05c-.027.02-.056.028-.016.038.052.014.076.017.076.006a.253.253 0 0 0-.017-.05c.01-.004.02-.009.01-.026-.015-.034-.041-.066-.075-.072a.055.055 0 0 0-.018 0z" style="fill:#fff;fill-opacity:1;fill-rule:evenodd;stroke-width:.12494;paint-order:fill markers stroke"/></svg>
